resources/img/favicon.svg

<svg xmlns="http://www.w3.org/2000/svg" viewBox="0 0 338.02 665"><defs><linearGradient id="a" x1="152.55" x2="314.53" y1="596.59" y2="126.15" gradientUnits="userSpaceOnUse"><stop offset=".04" stop-color="#a5519a"/><stop offset=".12" stop-color="#9f58a0"/><stop offset=".25" stop-color="#8f6daf"/><stop offset=".41" stop-color="#758ec9"/><stop offset=".58" stop-color="#50bded"/><stop offset=".6" stop-color="#4cc2f1"/><stop offset=".65" stop-color="#52c3ec"/><stop offset=".86" stop-color="#66c5dd"/><stop offset="1" stop-color="#6dc6d7"/></linearGradient></defs><path d="M210.28 53.85 338 171.94v51L210.51 105c-.08-19-.16-36.29-.23-51.15Zm.49 134.59L338 306.08v-53.15L210.62 135.14c.05 17.06.11 34.98.15 53.3ZM210 439c-2 107-83.5 99.5-83.5 99.5L0 665h153c191-23 185-220 185-220v-18.89L210.87 308.56c-.06 52.96-.31 100.51-.87 130.44Zm.89-169.61L338 386.92v-49.66L210.84 219.68c.02 16.57.04 33.25.05 49.71ZM338 0h-66l66 61.08Zm-99.35 0H210s.06 9.46.14 25.68L338 143.91v-52Z" data-name="Capa 2" style="fill:url(#a)"/></svg>

<svg xmlns="http://www.w3.org/2000/svg" xmlns:xlink="http://www.w3.org/1999/xlink" viewBox="0 0 338.02 665"><defs><style>.cls-1{fill:url(#Degradado_sin_nombre_36);}</style><linearGradient id="Degradado_sin_nombre_36" x1="152.55" y1="596.59" x2="314.53" y2="126.15" gradientUnits="userSpaceOnUse"><stop offset="0.04" stop-color="#a5519a"/><stop offset="0.12" stop-color="#9f58a0"/><stop offset="0.25" stop-color="#8f6daf"/><stop offset="0.41" stop-color="#758ec9"/><stop offset="0.58" stop-color="#50bded"/><stop offset="0.6" stop-color="#4cc2f1"/><stop offset="0.65" stop-color="#52c3ec"/><stop offset="0.86" stop-color="#66c5dd"/><stop offset="1" stop-color="#6dc6d7"/></linearGradient></defs><g id="Capa_2" data-name="Capa 2"><g id="Capa_2-2" data-name="Capa 2"><path class="cls-1" d="M210.28,53.85,338,171.94v51L210.51,105C210.43,86,210.35,68.71,210.28,53.85Zm.49,134.59L338,306.08V252.93L210.62,135.14C210.67,152.2,210.73,170.12,210.77,188.44ZM210,439c-2,107-83.5,99.5-83.5,99.5L0,665H153c191-23,185-220,185-220V426.11L210.87,308.56C210.81,361.52,210.56,409.07,210,439Zm.89-169.61L338,386.92V337.26L210.84,219.68C210.86,236.25,210.88,252.93,210.89,269.39ZM338,0H272L338,61.08ZM238.65,0H210s.06,9.46.14,25.68L338,143.91v-52Z"/></g></g></svg>
